!!!ONB: MCCC : IBB0032_03 : Extracted Monophonic Melody
!!!COM: Bartók, Béla
!!!OPR: Piano Sonata
!!!OMV: 3
!!!SCT: Sz.80 ; BB 88
!!!ODT: 1926///
**kern
*staff1
=1
*clefG2
*k[f#c#g#]
*A:
*M3/8
8ff#
8ff#
8ff#
=2
*k[]
*C:
*M2/4
8ee
8cc#
4b
=3
*M3/4
8cc#
8b
8cc#
8dd#
4ee
=4
*M3/8
8ff#
8ff#
8ff#
=5
*M2/4
8ee
8cc#
4b
=6
*M3/8
8a
8b
8a
=7
*M2/4
4b
4b
=8
*M3/8
8fff#
8fff#
8fff#
=9
*M2/4
8eee
8ccc#
4bb
=10
*M3/4
8ccc#
8bb
8ccc#
8ddd#
4eee
=11
*M3/8
8fff#
8fff#
8fff#
=12
*M2/4
8eee
8ccc#
4bb
=13
*M3/8
8aa
8bb
8aa
=14
*M2/4
4bb
4bb[
=15
2bb]
=16
8b
8b
4b[
=17
8b]
8b
4b
=18
*M6/8
2.r
=19
*M2/4
8r
8d
8r
8d
=20
*M5/8
3...r
=21
*M1/4
8r
8d
=22
*M6/8
2.r
=23
*M2/4
8r
8dd
8r
8dd
=24
*M5/8
3...r
=25
*M1/4
8r
8dd
=26
*M5/8
8fff#
8eee
8ddd
8ccc
8bb
=27
8r
4r
8ff
8ee
=28
*M3/8
8dd
8cc
8b
=29
*M5/8
4a
8r
8ccc#
8bb
=30
*M3/8
8aa
8gg
8ff#
=31
*M5/8
4ee
8r
8ggg#
8fff#
=32
*M3/8
8eee
8ddd
8ccc#
=33
*M5/8
8gg#
8ff#
8ee
8dd
8cc#
=34
8gg#
8ff#
8ee
8dd
8cc#
=35
8ggg#
8fff#
8eee
8ddd
8ccc#
=36
*M2/4
8bb
8ffff#
4ffff#
=37
8bb
8ffff#
4bb
=38
4ddd
8ddd
8ddd
=39
8fff
8ddd
8ddd
8ddd
=40
*M5/8
4bb
8ffff#
4bb
=41
*M2/4
4ddd
8fff
8ddd
=42
8ddd
8fff
8ddd
8ddd
=43
8r
8a
8a
8a
=44
8r
16a
32r
32g
8ff
8a
=45
16a
32r
32g
8ee-
8a
8a
=46
8dd
8a
8a
8a
=47
2r
=48
2r
=49
2r
=50
2r
=51
8r
8bb
8bb
8bb
=52
8aa
8ff#
4ee
=53
2ee
=54
2ee
=55
2ee[
=56
8ee]
8ee
8ff#
8gg#
=57
4aa
4aa
=58
2aa
=59
2aa
=60
2aa[
=61
8aa]
8bb
8ccc#
8bb
=62
8aa
8ff#
4ee
=63
2ee
=64
2ee
=65
2ee[
=66
8ee]
8dd
8ee
8dd
=67
4ee
4ee
=68
2ee
=69
2ee
=70
2ee[
=71
2ee]
=72
8bb
8bb
8ccc#
8bb
=73
8aa
8ff#
4ee
=74
8ff#
8ee
8ff#
8gg#
=75
8.aa
32r
32ggg#
4aaa
=76
8bb
8bb
8ccc#
8bb
=77
8aa
8ff#
4ee
=78
8dd
8ee
8dd
8cc
=79
4a
4a[
=80
8a]
4.a
=81
4.a
8a
=82
4eee
4eeee
=83
8r
8cc#
8r
8cc#
=84
4eee
4eeee
=85
8r
8cc#
8r
8cc#
=86
8r
8cc#
8r
8cc#
=87
8r
8cc#
8r
8cc#
=88
8r
8ee-
8r
8ee-
=89
*M9/16
8r
16ff[
8.ff]
8.ff
=90
*M3/8
8ff#
8ff#
8ff#
=91
*M2/4
8ee
8cc#
4b
=92
8cc#
8b
8cc#
8dd#
=93
*M1/4
4ee
=94
*M3/8
8ff#
8ff#
8ff#
=95
*M2/4
8ee
8cc#
4b
=96
*M3/8
8a
8b
8a
=97
*M2/4
4b
4b
=98
*M5/8
8fff#
8fff#
8fff#
8bbb-
8fff#
=99
*M2/4
8eee
8ccc#
4bb
=100
*M5/8
8ccc#
8bb
8aa
8ccc#
8ddd#
=101
*M3/8
4eee
8eee
=102
*M5/8
8fff#
8eee
8fff#
8cccc#
8fff#
=103
*M2/4
8ggg#
8ccc#
4bb
=104
*M5/8
8aa
8bb
8ccc#
8ddd
8aa
=105
*M2/4
4ee
4ee
=106
8ee
8ee
8ee
8ee
=107
8ee
8ee
8ee[
8ee]
=108
*M5/8
8r
8f#
4f#
8r
=109
*M6/8
8cc#
8b
8cc#
8b
8a
8g
=110
*M1/4
4f
=111
*M5/8
8e
8f
8g
8a
8f
=112
*M1/4
4g
=113
*M6/8
8cc#
8b
8cc#
8b
8a
8g
=114
*M1/4
4f
=115
*M5/8
8e
8f
8g
8a
8f
=116
*M1/4
4d
=117
*M6/8
4r
8a[
4.a]
=118
*M3/8
8b
8a
8g
=119
*M5/8
8a
8r
4.a
=120
*M3/8
8g
8a
8g
=121
*M6/8
4a
8a[
4.a]
=122
*M3/8
8b
8a
8g
=123
*M5/8
8a
8r
8E
8F
8G
=124
*M1/4
16A
16r
16G
16r
=125
*M5/8
4A
8F
8G
8A
=126
*M1/4
16B-
16r
16A
16r
=127
*M5/8
4B-
8b-
8cc
8dd
=128
*M1/4
16ee
16r
16dd
16r
=129
*M5/8
4cc
8bb-
8ccc
8ddd
=130
*M1/4
16eee
16r
16ddd
16r
=131
*M5/8
4ccc
8ccc
8bb-
8eee-
=132
8ddd
8ccc
8bb-
8aa
8gg
=133
8ff
8ee-
8dd
8cc
8b-
=134
8a
8g
8f
8e-
8f
=135
*M6/8
4.e
4e
8e
=136
8r
4e
4e
8e
=137
8e
8f
8e
8f
8e
8f
=138
8e
8f
8e
8f
8e
8f
=139
8e
8f
8e
8f
8e
8f
=140
8e
8f
8e
8f
8e
8f
=141
8D
16eee-
8.ccc#
16eee-
16ccc#
16eee-
16ccc#
16eee-
32ccc#
32ccc#
=142
8bb
24bb
16ccc#
48bb[
32bb]
32aa
16gg
4.ff#
=143
4.ff#
4.ff#[
=144
8ff#]
16gg#
16ff#
16gg#
16ff#
8r
16gg#
16ff#
24ee
24gg#
24aa#
=145
4.bb
4.bb
=146
4.bb[
4.bb]
=147
8D
16eee-
8.ccc#
16eee-
16ccc#
16ccc#
16eee-
16eee-
32ccc#
32ccc#
=148
8bb
24bb
16ccc#
48bb[
32bb]
32aa
16gg
4.ff#
=149
4.ff#[
4.ff#]
=150
8D
16ff#
16ee
16ee
16ff#
8r
16gg#
16ff#
32ff#
32ee
32dd
32cc
=151
4.b
4.b
=152
2.b[
=153
2.b]
=154
*M13/16
8r
16ff
16r
8r
8.ff
16r
8.ff
=155
*M3/8
8F#
8F#
8F#
=156
*M2/4
8E
8C#
4BB
=157
*M3/8
8AA
8C#
8D#
=158
*M1/4
4E
=159
*M3/8
8f#
8f#
8f#
=160
*M2/4
8e
8c#
4B
=161
*M3/8
8A
8c#
8d#
=162
*M2/4
4e
4e
=163
*M3/8
8ff#
8gg#
8ff#
=164
*M2/4
8ee
8cc#
4b
=165
*M3/8
8a
8cc#
8dd#
=166
*M3/4
4ee
4ee
4ee
=167
*M5/8
8eee-
8ccc#
8bb
8bb-
8ff#
=168
8gg#
8cc#
8dd#
8ee
8b
=169
*M7/8
4f#
8cccc#
8bbb
8aaa
8bbb
8eee
=170
*M5/8
8cc#
8b
8a
8g#
8e
=171
*M6/8
4.e-
4.e-
=172
*M1/4
4r
=173
*M9/8
4.r
8c
8d
8c
8d
8e
8f
=174
*M1/4
8.g
16r
=175
*M5/8
8f
8g
8a
8b-
8f
=176
*M1/4
8.g
16r
=177
*M6/8
8cc
8dd
8cc
8dd
8ee
8ff
=178
*M1/4
8.gg
16r
=179
*M5/8
8ff
8gg
8aa
8bb-
8ccc
=180
8r
4r
8f#
8e
=181
*M3/8
8d
8c
8B
=182
*M5/8
4A
8r
8ccc#
8bb
=183
*M3/8
8aa
8gg
8ff#
=184
*M5/8
4ee
8r
8ggg#
8fff#
=185
*M3/8
8eee
8ddd
8ccc#
=186
4.r
=187
*M5/8
8gg#
8ff#
8ee
8dd
8cc#
=188
*M3/8
4.r
=189
*M5/8
8fff#
8eee
8ddd
8ccc#
8bb
=190
*M2/4
8bb
8ffff#
4ffff#
=191
8bb
8ffff#
4bb
=192
4eee-
8eee-
8eee-
=193
4g#
8g#
8g#
=194
4bb
4ffff#
=195
8eee-[
8eee-]
4g#[
=196
8g#]
8eee-
8g#
8g#
=197
8r
8g#
8g#
8g#
=198
8r
8g#
8g#
8g#
=199
8r
8g#
8r
8g#
=200
8r
8g#
8r
8g#
=201
8r
8g#
8r
8g#
=202
8r
8g#
8r
8g#
=203
8r
16aa
16gg
16aa
16gg
16aa
16gg
=204
16gg
16ff
16gg
16ee
4dd
=205
16aa
16bb
16bb
16aa
16aa
16gg
16gg
16ff#
=206
16gg
8.ee
8dd
16a
16g
=207
16g
16f#
16g
16e
4d
=208
16b
16a
16a
16g
16g
16f#
16g
16e
=209
8d
16gg
16gg
4gg
=210
8dd
16gg
16aaa
16ggg
16ee
8dd[
=211
8dd]
16cc
16dd
16dd
16cc
16cc
16b-
=212
4g
4g[
=213
8g]
4.g
=214
4.g
8g
=215
4gg#
4aaa
=216
8r
8g
8r
8g
=217
4.gg#
8aaa
=218
8r
8gg#
4aaa
=219
4.gg#
8aaa
=220
4bbb
4bb
=221
4r
4bb
=222
4b
4r
=223
4b
4r
=224
2r
=225
8e
8e
8e
8e
=226
8d
8B
8A[
8A]
=227
8B
8A
8B
8c#
=228
8d[
8d]
8B
8A
=229
8B
8c#
8d[
8d]
=230
8ee
8ee
8ee
8ee
=231
8dd
8b
8a[
8a]
=232
8b
8a
8b
8cc#
=233
8dd[
8dd]
8b
8cc#
=234
8dd[
8dd]
8bb
8aa
=235
8bb
8ccc#
8ddd[
8ddd]
=236
8b
8a
8b
8cc#
=237
8dd[
8dd]
8bb
8aa
=238
8r
8bb
8bb
8aa
=239
8r
8bb
8bb
8aa
=240
8r
8bb
8bb
8aa
=241
8bb
8aa
8bb
8aa
=242
8bb
8aa
8bb
8aa
=243
8bb
8aa
8bb
8aa
=244
*M3/4
8bb
8aa
8bb
8ccc#
8ddd[
8ddd]
=245
*M11/16
8r
8b
8cc#
8dd
8.ee
=246
*M5/8
8fff#
8fff#
8fff#
8bbb-
8fff#
=247
*M2/4
8eee
8ccc#
4bb
=248
*M5/8
8ccc#
8bb
8aa
8ccc#
8ddd#
=249
*M3/8
4eee
8eee
=250
*M7/8
8ff#
8ee
8ff#
8F#
8ff#
8ccc#
8ff#
=251
*M3/4
8E
8ee
8ee-
8cc#
4b
=252
*M7/8
8aa
8gg
8aa
8bb
8ccc#
8ddd
8aa
=253
*M1/4
4bb
=254
*M5/8
8aa
8bb
8ccc#
8ddd
8eee
=255
*M1/4
4bb
=256
*M5/8
8A
8B
8c#
8d
8A
=257
*M1/4
4d
=258
*M4/4
8fff#
8fff#
8eee
8eee
8ddd
8ddd
8bb
8aa
=259
*M2/4
8ee[
8ee]
8ee[
8ee]
=260
8r
8a
8r
8a
=261
8r
8a
8r
8a
=262
8r
8a
8r
8a
=263
4b
4bb
=264
8r
8a
8r
8a
=265
8r
8a
8r
8a
=266
4b
4bb
=267
8r
8a
8r
8a
=268
4b
4bb
=269
8r
8ee
8r
8ee
=270
8r
8ee
8r
8ee
=271
8r
8ee
8r
8ee
=272
8r
8ee
8r
8ee
=273
8r
8ee
8r
8ee
=274
8r
8ee
8r
8ee
=275
8r
8ee
8r
8eee
=276
4eeee
4r
==
*-
